X: 24964
T: Maid Of Feakle, The
R: reel
M: 4/4
K: Gmajor
|:Bc|~d2BG AGEG|DGBG cGBc|dcBG AGEG|DGBG A2Bc|
(3ddc BG AGEG|DGBG cGBA|GA(3Bcd egge|dBAB G2:|
|:cA|B2dB c2dc|BddB AGEG|BddB cBce|dBGB A2GA|
BddB cBcA|BddB AGEG|Bd~d2 edBd|egfa g2:|

